X: 211
T: My brother Tom
C: anon.
O: Ireland
B: Francis O'Neill: "The Dance Music of Ireland" (1907) no. 211
R: Double jig
Z: Transcribed by Frank Nordberg - http://www.musicaviva.com
F: http://www.musicaviva.com/abc/tunes/ireland/oneill-1001/oneill-1001-021
1.abc
M: 6/8
L: 1/8
K: Ddor
D|:DED AGE|GAB cBc|DED AGE|GcA GEC|DED AGE|GAB cBc|edc dcA|GcA GED::ABc d
cd|
edc d2c|ABc d2e|=fed cAG|[1 ABc dcd|edc d2c|GAB cBc|GcA GEC:|[2 =fed
edc|dcA c2A|GAB c2A|GcA GED|]
W:
W:
W: From Musica Viva - http://www.musicaviva.com
W: the Internet center for free sheet music downloads.


